X: 23489
T: Lexie MacAskill
R: reel
M: 4/4
K: Edorian
eA~A2 deed|e2dB GABd|eA~A2 deed|egfd e2Bd|
eA~A2 deed|e2dB GABd|eA~A2 deed|egfd e2ef||

